X: 1869
T: Sid Briggs Lead Up
B: australian traditional tunes wiki
M:2/4
L:1/16
R: March
Q: 1/4=100
K:G
V:1 
"G"D2DD D2D2|D2G2 B2G2|"C"E2EE E2E2|E2A2 c2A2|"D"F2FF F2E2|"D7"D2c2 B2A2|"G"GF GA BA Bc|d4"D7"d2z2|
"G"D2DD D2D2|D2G2 B2G2|"C"E2EE E2E2|E2A2 c2A2|"D"F2FF F2E2|"D7"D2c2 B2A2|"D7"FD DE FG GG|"G"G4B2c2||
"G"d4d4|d4B2B2|"C"c4c4|c4 (3BcB A2|"G"B4B4|B4BAG2|"D7"F2d4^c2|"G"d4B2c2|
"G"d4d4|d4B2B2|"C"c4c4|c4 (3BcB A2|"G"B4A2G2|"D7"A4G2F2|"G"G2DD E2F2|G4z4||
% abcbook-tune_id 6342d53a0b62f80696173dce


% abcbook-boost 0
% abcbook-tablature 
% abcbook-transpose 
% abcbook-lastupdated 1665324389368
% abcbook-soundfonts 
% abcbook-repeats 1
% NFF Book 2006

